X:704
T:Mrs. Gordon of Aberdour
R:Strathspey
B:The Athole Collection
M:C
L:1/8
K:G
B|G>Bd>B e<A A>B|G/G/G G>B d>gd>B|c>aB>g a<A A>B|
G>gb>a ~g2g:|
|:a|b/a/g/f/ g>d e<a a>g|b/a/g/f/ g>d e>gd>B|c>aB>g a<A A>B|
G>gb>a ~g2g:|

